public/illustrations/forum.svg

<?xml version="1.0" encoding="UTF-8"?>
<svg width="645px" height="665px" viewBox="0 0 645 665" version="1.1" xmlns="http://www.w3.org/2000/svg" xmlns:xlink="http://www.w3.org/1999/xlink">
    <!-- Generator: Sketch 48.2 (47327) - http://www.bohemiancoding.com/sketch -->
    <title>Shape</title>
    <desc>Created with Sketch.</desc>
    <defs></defs>
    <g id="illistrations" stroke="none" stroke-width="1" fill="none" fill-rule="evenodd">
        <path d="M598.880254,296.840391 C637.424992,344.026625 653.119988,405.19599 636.78807,466.557929 C628.265292,498.582372 611.248324,527.482392 585.160642,554.243081 L572.732037,566.992109 L575.340686,575.684032 C580.755718,593.732549 590.231427,607.328494 610.2001,625.701007 C644.728369,657.468159 644.941588,657.842184 630.77031,661.676541 C619.659133,664.681847 594.92104,664.787861 578.359096,661.90048 C547.684242,656.552153 513.130958,645.330198 473.536668,627.855823 L458.051536,621.022115 L446.735479,622.618275 C378.752178,632.210718 310.459175,615.621378 257.287999,576.600038 C251.747895,572.534595 240.225766,562.169086 231.683929,553.565309 C225.72767,547.566086 220.26518,541.470802 215.279411,535.245796 C216.169955,534.855984 217.062509,534.463676 217.957075,534.068872 L237.759225,525.33003 L252.230027,527.371175 C339.166036,539.637845 426.498087,518.42365 494.492577,468.523755 C501.577177,463.324929 516.3115,450.069674 527.234671,439.067295 C568.202272,397.804184 590.903153,352.987349 598.729572,297.919093 C598.78067,297.559571 598.830897,297.200003 598.880254,296.840391 Z M259.084618,3.42304109 C249.031218,4.61269334 231.53678,7.89528051 220.208427,10.7193718 C64.3837856,49.5696669 -27.9368843,188.297437 9.1936702,327.803584 C20.0924689,368.755953 41.8535086,405.712858 75.2140384,439.93402 L91.1075486,456.237282 L87.771648,467.352382 C80.8469884,490.432549 68.7295959,507.818837 43.1939618,531.313326 C-0.960263037,571.936675 -1.23292341,572.414973 16.8890903,577.31829 C31.0978946,581.161431 62.7325909,581.296999 83.911752,577.60466 C123.138288,570.765302 167.324501,556.414836 217.957075,534.068872 L237.759225,525.33003 L252.230027,527.371175 C339.166036,539.637845 426.498087,518.42365 494.492577,468.523755 C501.577177,463.324929 516.3115,450.069674 527.234671,439.067295 C568.202272,397.804184 590.903153,352.987349 598.729572,297.919093 C609.337431,223.283266 582.401937,146.650469 525.723614,90.2097717 C459.133553,23.896941 359.685633,-8.4719581 259.084618,3.42304109 M259.425197,212.920803 L259.425197,261.685883 L237.338184,261.685883 L215.25117,261.685883 L215.25117,268.062175 C215.25117,277.146792 219.476644,292.958047 224.67547,303.322188 C230.171329,314.27887 239.156935,324.1967 250.665031,332.012457 L259.425197,337.962241 L259.425197,358.468129 C259.425197,382.443963 260.953009,381.115696 239.531653,375.763022 C203.662343,366.798741 179.94546,344.547218 169.083219,309.668015 C162.955215,289.992294 161.735098,273.417895 162.239291,216.750234 L162.69931,164.959996 L211.062254,164.55786 L259.425197,164.155724 L259.425197,212.920803 M422.635316,212.901001 L422.635316,261.605151 L400.216236,262.025566 L377.798678,262.447504 L378.254128,269.842845 C379.816975,295.151516 393.262634,318.513483 414.301657,332.480092 L422.635316,338.010985 L422.635316,357.779624 C422.635316,373.62439 422.198145,377.715819 420.431184,378.393662 C416.749508,379.805707 390.645704,371.494897 377.797155,364.82005 C356.372752,353.688195 341.525709,336.726892 333.249934,313.931571 C326.535482,295.433316 325.166087,279.440795 325.156948,219.415908 L325.147808,164.198375 L373.891562,164.198375 L422.635316,164.198375 L422.635316,212.901001" id="Shape" stroke="#9BC4BB" stroke-width="2" fill="#FFFFFF"></path>
    </g>
</svg>

<svg width="645" height="665" xmlns="http://www.w3.org/2000/svg">
    <path d="M598.88 296.84c38.545 47.187 54.24 108.356 37.908 169.718-8.523 32.024-25.54 60.924-51.627 87.685l-12.429 12.75 2.609 8.691c5.415 18.049 14.89 31.644 34.86 50.017 34.527 31.767 34.74 32.141 20.57 35.976-11.112 3.005-35.85 3.11-52.412.223-30.675-5.348-65.228-16.57-104.822-34.044l-15.485-6.834-11.317 1.596c-67.983 9.593-136.276-6.997-189.447-46.018-5.54-4.065-17.062-14.43-25.604-23.035-5.956-5.999-11.419-12.094-16.405-18.32.891-.389 1.784-.781 2.678-1.176l19.802-8.739 14.471 2.041c86.936 12.267 174.268-8.947 242.263-58.847 7.084-5.2 21.819-18.454 32.742-29.457 40.967-41.263 63.668-86.08 71.495-141.148l.15-1.079zM259.085 3.423c-10.054 1.19-27.548 4.472-38.877 7.296C64.384 49.57-27.937 188.297 9.194 327.804c10.898 40.952 32.66 77.909 66.02 112.13l15.894 16.303-3.336 11.115c-6.925 23.08-19.042 40.467-44.578 63.961-44.154 40.624-44.427 41.102-26.305 46.005 14.209 3.843 45.844 3.979 67.023.287 39.226-6.84 83.413-21.19 134.045-43.536l19.802-8.739 14.471 2.041c86.936 12.267 174.268-8.947 242.263-58.847 7.084-5.2 21.819-18.454 32.742-29.457 40.967-41.263 63.668-86.08 71.495-141.148 10.607-74.636-16.328-151.269-73.006-207.71-66.59-66.312-166.038-98.681-266.64-86.786m.341 209.498v48.765h-44.174v6.376c0 9.085 4.226 24.896 9.424 35.26 5.496 10.957 14.482 20.875 25.99 28.69l8.76 5.95v20.506c0 23.976 1.528 22.648-19.893 17.295-35.87-8.964-59.587-31.216-70.449-66.095-6.128-19.676-7.348-36.25-6.844-92.918l.46-51.79 48.363-.402 48.363-.402v48.765m163.21-.02v48.704l-22.419.42-22.417.423.455 7.395c1.563 25.309 15.009 48.67 36.048 62.637l8.333 5.531v19.769c0 15.844-.437 19.936-2.204 20.614-3.681 1.412-29.785-6.9-42.634-13.574-21.424-11.132-36.271-28.093-44.547-50.888-6.715-18.499-8.084-34.491-8.093-94.516l-.01-55.218h97.488v48.703" stroke="#9BC4BB" stroke-width="2" fill="#FFF" fill-rule="evenodd"/>
</svg>
